packages/sources/assets/src/assets/flag-sk.svg

<svg width="28" height="20" viewBox="0 0 28 20" fill="none" xmlns="http://www.w3.org/2000/svg">
<rect x="0.25" y="0.25" width="27.5" height="19.5" rx="1.75" fill="white" stroke="#F5F5F5" stroke-width="0.5"/>
<mask id="mask0_503_4396" style="mask-type:alpha" maskUnits="userSpaceOnUse" x="0" y="0" width="28" height="20">
<rect x="0.25" y="0.25" width="27.5" height="19.5" rx="1.75" fill="white" stroke="white" stroke-width="0.5"/>
</mask>
<g mask="url(#mask0_503_4396)">
<path fill-rule="evenodd" clip-rule="evenodd" d="M0 13.3333H28V6.66666H0V13.3333Z" fill="#0C47B7"/>
<path fill-rule="evenodd" clip-rule="evenodd" d="M0 20H28V13.3333H0V20Z" fill="#E53B35"/>
<path d="M6.94971 3.33333C5.87505 3.33333 4.99249 4.1826 4.95119 5.25647L4.69194 11.9969C4.66847 12.6073 4.92515 13.1948 5.38888 13.5923L8.26456 16.0572C9.2632 16.9132 10.7368 16.9132 11.7355 16.0572L14.6111 13.5923C15.0749 13.1948 15.3315 12.6073 15.3081 11.9969L15.0488 5.25647C15.0075 4.1826 14.125 3.33333 13.0503 3.33333H6.94971Z" fill="#F73744" stroke="white" stroke-width="1.33333"/>
<mask id="mask1_503_4396" style="mask-type:alpha" maskUnits="userSpaceOnUse" x="4" y="2" width="12" height="16">
<path d="M6.94971 3.33333C5.87505 3.33333 4.99249 4.1826 4.95119 5.25647L4.69194 11.9969C4.66847 12.6073 4.92515 13.1948 5.38888 13.5923L8.26456 16.0572C9.2632 16.9132 10.7368 16.9132 11.7355 16.0572L14.6111 13.5923C15.0749 13.1948 15.3315 12.6073 15.3081 11.9969L15.0488 5.25647C15.0075 4.1826 14.125 3.33333 13.0503 3.33333H6.94971Z" fill="white" stroke="white" stroke-width="1.33333"/>
</mask>
<g mask="url(#mask1_503_4396)">
<path fill-rule="evenodd" clip-rule="evenodd" d="M9.33356 11C9.33356 10.8159 9.18432 10.6666 9.00022 10.6666H7.66689C7.4828 10.6666 7.33356 10.5174 7.33356 10.3333V9.66665C7.33356 9.48255 7.4828 9.33331 7.66689 9.33331H9.00022C9.18432 9.33331 9.33356 9.18407 9.33356 8.99998V8.33331C9.33356 8.14922 9.18432 7.99998 9.00022 7.99998H8.33356C8.14946 7.99998 8.00022 7.85074 8.00022 7.66665V6.99998C8.00022 6.81589 8.14946 6.66665 8.33356 6.66665H9.00022C9.18432 6.66665 9.33356 6.51741 9.33356 6.33331V5.66665C9.33356 5.48255 9.4828 5.33331 9.66689 5.33331H10.3336C10.5177 5.33331 10.6669 5.48255 10.6669 5.66665V6.33331C10.6669 6.51741 10.8161 6.66665 11.0002 6.66665H11.6669C11.851 6.66665 12.0002 6.81588 12.0002 6.99998V7.66665C12.0002 7.85074 11.851 7.99998 11.6669 7.99998H11.0002C10.8161 7.99998 10.6669 8.14922 10.6669 8.33331V8.99998C10.6669 9.18407 10.8161 9.33331 11.0002 9.33331H12.3336C12.5177 9.33331 12.6669 9.48255 12.6669 9.66665V10.3333C12.6669 10.5174 12.5177 10.6666 12.3336 10.6666H11.0002C10.8161 10.6666 10.6669 10.8159 10.6669 11V13C10.6669 13.1841 10.5177 13.3333 10.3336 13.3333H9.66689C9.4828 13.3333 9.33356 13.1841 9.33356 13V11Z" fill="white"/>
<path fill-rule="evenodd" clip-rule="evenodd" d="M11.2034 13.4254C10.9887 12.9766 10.5305 12.6667 9.99984 12.6667C9.46917 12.6667 9.01091 12.9767 8.79629 13.4255C7.17536 13.6809 6 14.4385 6 15.3333C6 16.4379 7.79086 17.3333 10 17.3333C12.2091 17.3333 14 16.4379 14 15.3333C14 14.4384 12.8245 13.6808 11.2034 13.4254Z" fill="#1251A1"/>
</g>
</g>
</svg>

<svg width="28" height="20" fill="none" xmlns="http://www.w3.org/2000/svg"><rect x=".25" y=".25" width="27.5" height="19.5" rx="1.75" fill="#fff" stroke="#F5F5F5" stroke-width=".5"/><mask id="a" style="mask-type:alpha" maskUnits="userSpaceOnUse" x="0" y="0" width="28" height="20"><rect x=".25" y=".25" width="27.5" height="19.5" rx="1.75" fill="#fff" stroke="#fff" stroke-width=".5"/></mask><g mask="url(#a)"><path fill-rule="evenodd" clip-rule="evenodd" d="M0 13.333h28V6.667H0v6.666Z" fill="#0C47B7"/><path fill-rule="evenodd" clip-rule="evenodd" d="M0 20h28v-6.667H0V20Z" fill="#E53B35"/><path d="M13.05 3.333h-6.1a2 2 0 0 0-2 1.923l-.26 6.74a2 2 0 0 0 .698 1.596l2.876 2.465a2.667 2.667 0 0 0 3.47 0l2.876-2.465a2 2 0 0 0 .697-1.595l-.26-6.74a2 2 0 0 0-1.998-1.924Z" fill="#F73744" stroke="#fff" stroke-width="1.333"/><mask id="b" style="mask-type:alpha" maskUnits="userSpaceOnUse" x="4" y="2" width="12" height="16"><path d="M13.05 3.333h-6.1a2 2 0 0 0-2 1.923l-.26 6.74a2 2 0 0 0 .698 1.596l2.876 2.465a2.667 2.667 0 0 0 3.47 0l2.876-2.465a2 2 0 0 0 .697-1.595l-.26-6.74a2 2 0 0 0-1.998-1.924Z" fill="#fff" stroke="#fff" stroke-width="1.333"/></mask><g mask="url(#b)" fill-rule="evenodd" clip-rule="evenodd"><path d="M9.334 11A.333.333 0 0 0 9 10.667H7.667a.333.333 0 0 1-.333-.334v-.666c0-.184.149-.334.333-.334H9A.334.334 0 0 0 9.334 9v-.667A.333.333 0 0 0 9 8h-.666A.333.333 0 0 1 8 7.667V7c0-.184.15-.333.334-.333H9c.184 0 .334-.15.334-.334v-.666c0-.184.149-.334.333-.334h.667c.184 0 .333.15.333.334v.666c0 .184.15.334.333.334h.667c.184 0 .333.149.333.333v.667a.333.333 0 0 1-.333.333H11a.333.333 0 0 0-.333.333V9c0 .184.15.333.333.333h1.334c.184 0 .333.15.333.334v.666c0 .184-.15.334-.333.334H11a.333.333 0 0 0-.333.333v2c0 .184-.15.333-.333.333h-.667A.333.333 0 0 1 9.334 13v-2Z" fill="#fff"/><path d="M11.203 13.425a1.333 1.333 0 0 0-2.407 0C7.176 13.681 6 14.438 6 15.333c0 1.105 1.79 2 4 2s4-.895 4-2c0-.895-1.175-1.652-2.797-1.908Z" fill="#1251A1"/></g></g></svg>
